!!!!SEGMENT: pl-sa--481-a-viii-121--015_winter-peter-von--march.krn
!!!cenid: 18xx:386
!!!COM: Winter, Peter von
!!!COM-rismid: pe141907
!!!CDT: 1754/08/28-1825/10/17
!!!CNT: German
!!!OTL: March
!!!PDT:
!!!AGN: Secular; March
!!!SMS-siglum: PL-SA
!!!SMS-shelfmark: 481/A VIII 121
!!!SMS-shelfwork: 015 W
!!!SMS-variant:
!!!SMS-altvar:
!!!NIFC-rismid: 1001070663
!!!URL-scan: http://bc.bdsandomierz.pl/dlibra/publication/1212/edition/1171/content
!!!ONB-nifc: Str. 9, s. 4-5
!!!key:
**kern	**kern
*part1	*part1
*staff2	*staff1
*Ipiano	*Iempty
*I"Piano	*
*I'P-no	*
*clefF4	*clefG2
*k[b-e-]	*k[b-e-]
*B-:	*B-:
*M4/4	*M4/4
*met(c)	*met(c)
*>[A,A,B,B]	*>[A,A,B,B]
*>A	*>A
!LO:TX:a:t=P:problem=omyłkowo wpisany klucz F3 i bemole E- C-	!LO:TX:a:i:t=March z Opery Przerwana Ofiara
4r	8.f/L
.	16f/Jk
=1	=1
4B-\	4.b- 4.f 4.d/
4BB-/	.
.	8b- 8f 8d/
4F\	4.cc 4.a 4.f/
4FF/	.
.	8cc 8a 8f/
=2	=2
!LO:SIC:v:n=2:s=BB-	!
4F 4AA/	4dd 4b- 4f/
4F 4FF/	4cc 4a 4f/
4r	4r
8FL 8FF/	8ccL 8a\
8FJ 8BB-/	8ddJ 8b-\
=3	=3
.	8qg/
*2\right	*
2.G 2.E-\	4ee-\
.	4dd\
.	4cc\
4G 4En\	4b-\
=4	=4
4F\	4dd 4b-\
4FF/	4cc 4a\
4F\	4r
4r	8.ccL 8.a\
.	16ccJk 16a\
=5	=5
4En\	4.cc 4.g/
4C/	.
.	8cc 8g/
4E\	4.cc 4.g/
4C/	.
!	!LO:SIC:v:n=2:s=en
.	8b-X 8e-/
=6	=6
4F\	4b- 4g/
4FF/	4a 4f/
!	!LO:TUP:a:problem=klamra łukowa
4F 4BB-\	12dd\L
.	12cc\
.	12b-\J
!	!LO:TUP:a:problem=klamra łukowa
4F 4BB-\	12ff\L
.	12een\
.	12dd\J
=7	=7
4F 4AA/	4ccM\
4B-\	8dd\L
.	8b-\J
4c\	4a/
4C/	4g/
.	16qqf/LL
.	16qqg/JJ
=8	=8
!	!LO:N:vis=8
4F\	4f/L
4FF/	8.f 8.A/
.	16fJk 16A/
4FF/	4f 4A/
=:|!|:	=:|!|:
*>B	*>B
4r	8ccL 8a\
.	8ddJ 8b-\
!LO:LB:g=original	!LO:LB:g=original
=9	=9
4FF/	4.ee- 4.cc\
4F\	.
.	8cc 8a\
!LO:SIC:v:n=2:s=BB-	!
4F 4AA\	4ee- 4cc\
!LO:SIC:v:n=2:s=BB-	!
4F 4AA\	4dd 4b-\
=10	=10
4F\	4dd 4b-\
4FF/	4cc 4a\
4F\	4r
4r	8ccL 8a\
.	8ccJ 8a\
=11	=11
!LO:SIC:v:n=2:s=BB-	!
4F 4AA\	4dd 4b-\
!LO:SIC:v:n=2:s=BB-	!
4F 4AA\	4ff 4dd\
4E-\	4ee- 4cc\
4En\	4dd 4b-\
=12	=12
4F\	4dd 4b-\
4FF/	4cc 4a\
4F\	4r
4r	8.f/L
.	16f/Jk
=13	=13
4B-\	4.b- 4.f 4.d/
4BB-/	.
.	8b- 8f 8d/
4F\	4.cc 4.a 4.f/
4FF/	.
.	8cc 8a 8f/
=14	=14
2BB-/	2dd 2b- 2f/
!	!LO:TUP:a:problem=klamra łukowa
4G 4E-\	12ee-\L
.	12dd\
.	12cc\J
!	!LO:TUP:a:problem=klamra łukowa
4G 4E-\	12gg\L
.	12ee-\
.	12cc\J
=15	=15
4d 4F\	4.g/
4d 4F\	.
.	8g/
4e- 4F\	4.a/
4e- 4F\	.
.	8a/
=16	=16
.	4qqcc/
*	*2\right
2d 2G\	2b-\
!	!LO:TUP:a:problem=klamra łukowa
4G 4E-\	12ee-\L
.	12dd\
.	12cc\J
!	!LO:TUP:a:problem=klamra łukowa
4G 4E-\	12gg\L
.	12ee-\
.	12cc\J
=17	=17
4d 4F\	4.b-/
4d 4F\	.
.	8b-/
4e- 4F\	4.a/
4e- 4F\	.
.	8a/
=18	=18
4d 4B-\	4b-\
4B- 4BB-\	8.bb-L 8.ff 8.dd\
.	16bb-Jk 16ff 16dd\
4B- 4BB-\	4bb- 4ff 4dd\
=:|!	=:|!
*-	*-
!!!system-decoration: s1,s2
!!!AIN: 1 piano
!!!ENC: Marta Lawrence
!!!END: 2020-11-20
!!!ENC: Marcin Jachim
!!!END: 2020-06-14
